X: 23
T:Willaford
% Nottingham Music Database
S:Kevin Briggs, via EF
M:4/4
L:1/4
K:D
P:A
F/2G/2|"D"AF/2A/2 -A/2F/2A|"G"BG/2B/2 -B/2G/2B|"D"AF/2A/2 -A/2F/2A|\
"Em"E/2F/2G/2A/2 "A7"G/2F/2E/2D/2|
"D"AF/2A/2 -A/2F/2A|"G"BG/2B/2 -B/2G/2B|"A7"A/2B/2c/2d/2 e/2f/2g/2e/2|"D"fd d\
:|
P:B
d/2e/2|"D"fd/2f/2 -f/2d/2f|"Em"g/2e/2a/2f/2 "A7"g/2f/2e/2d/2|\
"D"fd/2f/2 -f/2d/2f|"A7"ec/2e/2 -e/2c/2e|
"D"fd/2f/2 -f/2d/2f|"Em"g/2e/2a/2f/2 "A7"g/2f/2e/2d/2|\
"G"c/2B/2c/2d/2 "A7"e/2f/2g/2e/2|"D"fd d:|<end>
<start>
